src/topics/icons/codeschool.svg

<svg height="256" preserveAspectRatio="xMidYMid" viewBox="0 0 256 256" width="256" xmlns="http://www.w3.org/2000/svg"><path d="m128 0c-70.7490909 0-128 57.2509091-128 128 0 70.749091 57.2509091 128 128 128 70.749091 0 128-57.250909 128-128 0-70.7490909-57.716364-128-128-128zm0 232.727273c-58.1818182 0-105.1927273-47.010909-105.1927273-104.727273 0-58.1818182 47.0109091-105.1927273 105.1927273-105.1927273 58.181818 0 104.727273 47.0109091 104.727273 105.1927273 0 57.716364-47.010909 104.727273-104.727273 104.727273zm-13.963636-69.818182-37.7018185-34.909091 37.7018185-35.3745455v-33.0472727l-72.1454549 68.4218182 72.1454549 67.956364zm27.461818-103.3309092v33.0472727l37.701818 35.3745455-37.701818 34.909091v33.047273l72.145454-67.956364z" fill="#53adc0"/></svg>

<?xml version="1.0" encoding="UTF-8" standalone="no"?>
<svg width="256px" height="256px" viewBox="0 0 256 256" version="1.1" xmlns="http://www.w3.org/2000/svg" xmlns:xlink="http://www.w3.org/1999/xlink" preserveAspectRatio="xMidYMid">
    <g>
        <path d="M128,1.34357172e-14 C57.2509091,1.34357172e-14 0,57.2509091 0,128 C0,198.749091 57.2509091,256 128,256 C198.749091,256 256,198.749091 256,128 C256,57.2509091 198.283636,0 128,0 L128,1.34357172e-14 Z M128,232.727273 C69.8181818,232.727273 22.8072727,185.716364 22.8072727,128 C22.8072727,69.8181818 69.8181818,22.8072727 128,22.8072727 C186.181818,22.8072727 232.727273,69.8181818 232.727273,128 C232.727273,185.716364 185.716364,232.727273 128,232.727273 L128,232.727273 Z M114.036364,162.909091 L76.3345455,128 L114.036364,92.6254545 L114.036364,59.5781818 L41.8909091,128 L114.036364,195.956364 L114.036364,162.909091 Z M141.498182,59.5781818 L141.498182,92.6254545 L179.2,128 L141.498182,162.909091 L141.498182,195.956364 L213.643636,128 L141.498182,59.5781818 Z" fill="#53ADC0"></path>
    </g>
</svg>
